dist/svgs/geomicons-open/icons/lock.svg

<svg xmlns="http://www.w3.org/2000/svg" viewBox="0 0 32 32"><path d="M22 16v-4a6 6 0 00-12 0v4zM4 16h2v-4a10 10 0 0120 0v4h2v14H4z"/></svg>

<svg id="lock" xmlns="http://www.w3.org/2000/svg" viewBox="0 0 32 32" width="32" height="32" fill="currentcolor">
  <path d="M22 16 L22 12 A6 6 0 0 0 10 12 L10 16 z M4 16 L6 16 L6 12 A10 10 0 0 1 26 12 L26 16 L28 16 L28 30 L4 30 z"></path>
</svg>
